X:1
T:Palm Sunday (Jig)
M:6/8
L:1/8
O:Trad. (13.3.2014/NS)
R:jig
K:Ador
|:B |"Am"AGE G2E|G2E G2E|A2B c2d|"G"e2d efg|
"Am"~e3 ded|"G"BAG Bcd|"C"edc BAG|"D"B2A A2:|
|:e|"Am"~a3 efg|a2a "C"bge|"G"g2g gfe|dBA GBd|
"Am"efg ded|"G/B"BAG Bcd|"C"edc BAG|"D"B2A A2:|
